X: 16114
T: Green Gates, The
R: reel
M: 4/4
K: Dmajor
BA|:DFAd (3BdB AF|DFAd (3BdB AF|BE~E2 BE~E2|GABc dBAF|
DFAd (3BdB AF|DFAd (3BdB AF|GFGA BcdB|1 AFEF D2 FE:|2 AFEF D2 AB||
|:Ad~d2 fd~d2|AddA BAFA|BE~E2 BE~E2|GABc dBAF|
Ad~d2 fd~d2|AddA BAFA|GFGA BcdB|1 AFEF D2 FE:|2 AFEF D4||

